X: 219
T: Song of Victory
C: Teton Sioux band 1911-1914
N: Derived from sioux214.krn
O: South Dakota, U.S.A.
N: Teton Sioux Music by Frances Densmore, 1918
Z: transcribed to **kern format by Craig Sapp
L: 1/4
M: 2/4
Q: 1/4=58
K: C clef=bass
%%linebreak <none>
E2 [I:setbarnb 2]| 
E3/C/ | 
E/ C/C | 
C3/A,/ | 
C/ A,/A, | 
A,A, | 
E,E, | 
A,A, | 
E,E, | 
A,E, | 
E,D, | 
E,E, | 
E,E,/ E,/ | 
E,/ D,/ E,/ D,/ | 
E,2- | 
E,2 | 
CC | 
CC | 
EC | 
(C3/A,/) | 
CA, | 
A,A, | 
E,E, | 
A,A, | 
E,E, | 
E,E, | 
A,E, | 
E,D, | 
E,E, | 
E,E,/ E,/ | 
E,E,/ D,/ | 
E,2 |]  



